images/heart6.svg

<svg width="255" height="84" viewBox="0 0 255 84" fill="none" xmlns="http://www.w3.org/2000/svg">
<path d="M110.811 51.5678L110.331 50.7351C110.331 50.7351 110.321 50.7451 110.311 50.7501C108.907 51.7785 107.497 52.4858 106.325 52.4858C102.68 52.4858 100.227 50.8855 99.7472 46.3457C99.6878 45.8039 99.6532 45.232 99.6532 44.605V26.285C99.6631 25.8084 99.6631 25.0509 99.6631 24.6847H107.082V22.5778H99.6631V16.8892C99.6631 16.8892 99.6878 16.227 99.5939 15.1686C99.3169 11.9631 98.392 8.88298 96.6363 6.18414C95.3702 4.23275 93.5353 2.51713 91.4185 1.56401C90.1128 0.97709 88.0059 0.535645 85.8643 0.535645C84.0641 0.535645 81.611 0.972074 80.2954 1.56401C78.1786 2.51713 76.3437 4.23777 75.0776 6.18414C73.3218 8.88298 72.397 11.9631 72.12 15.1686C72.026 16.227 72.0508 16.8892 72.0508 16.8892V22.5778H67.1198V24.6847H72.0508C72.0508 25.0509 72.0508 25.8084 72.0606 26.285C72.0606 26.3502 72.0606 26.4154 72.0606 26.4706V48.9843C71.9073 52.7015 70.7055 54.2315 66.2939 54.3067C65.1712 54.2867 64.2562 54.1713 63.5044 53.9506C62.2334 53.5794 61.4519 52.9021 61.0118 51.8587C60.9722 51.7634 60.9376 51.6631 60.9079 51.5628C60.6656 50.8554 60.5468 50.0027 60.5271 48.9793V20.6465H59.5082C56.6842 21.9207 51.2686 22.9541 48.3654 22.9541V24.148C51.2686 24.148 54.5624 24.3085 54.5624 28.2865V48.9793C54.5624 52.7968 53.1479 54.3118 48.4396 54.3118V55.5057C51.6543 55.5057 54.325 55.3451 57.5398 55.3451C60.5172 55.3451 63.0296 55.4806 65.9378 55.5007C66.0565 55.5007 66.1702 55.5007 66.2889 55.5007C66.3136 55.5007 66.3334 55.5007 66.3582 55.5007C66.4521 55.5007 66.5461 55.5007 66.6401 55.5007C69.2317 55.4806 71.5117 55.3702 74.0884 55.3451C74.4 55.3451 74.7165 55.3451 75.038 55.3451C78.2528 55.3451 80.9235 55.5057 84.1383 55.5057V54.3118C84.0641 54.3118 83.9948 54.3118 83.9207 54.3118C79.1677 54.2616 78.0203 52.5761 78.0203 48.3472V48.1165C78.0203 48.1165 78.0203 47.5095 78.0203 47.5045V24.6897H85.7209V22.5829H78.0945V13.8944C78.0945 9.22912 80.2608 6.54031 80.879 5.76778C82.1748 4.14747 83.886 2.89337 85.8495 2.89337C87.813 2.89337 89.5242 4.14747 90.82 5.76778C91.4383 6.54031 93.6045 9.30436 93.6045 13.8944V22.5829H88.3323V24.6897H93.7677V46.2805C93.7677 49.9274 94.7964 53.6596 97.6155 55.3602C98.6096 55.9622 99.8263 56.3083 101.3 56.3083C102.631 56.3083 103.986 56.0474 105.346 55.5107C106.3 55.1345 107.255 54.6178 108.204 53.9556C109.04 53.3737 109.876 52.6764 110.697 51.8637C110.757 51.8035 110.816 51.7484 110.875 51.6932L110.806 51.5728L110.811 51.5678Z" fill="#1F305E"/>
<path d="M190.908 48.9943V35.8613C190.908 25.5927 187.377 20.6616 179.923 20.6616C175.161 20.6616 170.007 23.6614 167.485 29.1795V20.8171H166.466C165.368 21.2936 163.563 22.011 161.599 22.4073C159.166 22.9641 156.97 23.1246 155.323 23.1246V24.3185C158.226 24.3185 161.52 24.4791 161.52 28.4571V38.9615C161.52 45.8842 158.538 52.5711 151.243 52.5711C144.887 52.5711 144.18 46.2855 144.18 41.4296V20.7368H143.161C142.063 21.2134 140.258 21.9307 138.295 22.327C135.861 22.8838 133.665 23.0444 132.018 23.0444V24.2383C134.763 24.2383 137.746 24.3988 138.062 28.0608V41.1938C138.062 51.4574 141.594 56.3936 149.047 56.3936C153.834 56.3936 159.013 53.3687 161.525 47.8004V51.0611C161.525 54.9639 163.172 56.3133 165.289 56.3133C167.955 56.3133 171.565 54.5626 173.687 52.6513L173.138 51.6982C172.272 52.0995 171.412 52.1748 170.704 52.1748C168.667 52.1748 167.49 50.6598 167.49 47.9559V36.4583C167.861 30.6994 171.041 24.4791 177.732 24.4791C184.424 24.4791 184.795 30.7646 184.795 35.6205V48.3522C184.795 52.6513 183.618 54.3218 178.672 54.3218V55.5157C181.734 55.5157 184.869 55.2749 187.931 55.2749C190.992 55.2749 193.974 55.5157 197.031 55.5157V54.3218C192.322 54.3218 190.913 52.8068 190.913 48.9893L190.908 48.9943Z" fill="#1F305E"/>
<path d="M225.988 47.961C225.988 50.6648 227.166 52.1798 229.203 52.1798C229.91 52.1798 230.771 52.0995 231.637 51.7032L232.186 52.6563C230.069 54.5676 226.458 56.3183 223.788 56.3183C221.824 56.3183 220.335 55.2047 220.019 52.0995C217.037 54.8034 212.956 56.2381 209.504 56.2381C201.344 56.2381 194.049 49.3154 194.049 39.127C194.049 28.9387 201.423 20.5863 211.547 20.5863C214.371 20.5863 217.432 21.7 220.019 23.852V9.12879C220.019 4.82971 216.804 4.6742 213.822 4.6742V3.48029C216.725 3.48029 222.141 2.4469 224.965 1.17273H225.984V47.971L225.988 47.961ZM220.024 34.6724C220.024 28.2263 217.432 22.8136 210.686 22.8136C203.94 22.8136 200.251 29.5005 200.251 36.4232C200.251 44.3792 204.093 52.8971 212.022 52.8971C217.437 52.8971 220.024 48.9191 220.024 43.2656V34.6724Z" fill="#1F305E"/>
<path d="M242.527 56.6344C239.936 56.6344 235.781 55.5207 233.659 54.5676V46.7671H234.836C235.776 53.454 239.624 54.7281 242.76 54.7281C245.351 54.7281 249.506 52.5811 249.506 48.5178C249.506 43.2656 244.639 41.6754 237.423 36.659C235.148 35.0687 233.659 32.4401 233.659 29.5758C233.659 23.0494 239.466 20.6616 244.956 20.6616C248.096 20.6616 250.999 21.6147 252.805 22.4926V29.8918H251.627C251.39 25.8335 249.194 22.6481 244.881 22.6481C240.331 22.6481 238.917 25.7532 238.917 27.9805C238.917 30.2078 240.954 32.2796 247.389 36.2576C250.841 38.4047 255 41.7506 255 46.6015C255 53.9255 249.432 56.6294 242.527 56.6294V56.6344Z" fill="#1F305E"/>
<path d="M128.349 0.7664C121.133 0.7664 116.108 8.40642 116.108 15.6802V55.2348C116.108 62.5287 113.917 71.3576 109.208 74.3825L109.678 75.4159C119.016 72.1552 122.077 60.7729 122.077 51.3822V24.6948H129.753V22.5879H122.152V11.7474C122.152 5.85808 124.268 2.91343 127.251 2.91343C131.801 2.91343 133.843 8.72246 135.174 8.72246C136.588 8.72246 137.37 7.60881 137.37 6.33464C137.37 2.5974 131.094 0.7664 128.344 0.7664H128.349Z" fill="#1F305E"/>
<path d="M50.8432 34.5119C47.4702 34.5119 44.3296 34.6724 40.9566 34.6724C37.5835 34.6724 34.3638 34.5119 30.9908 34.5119V35.7058C35.9366 35.7058 37.5835 37.3763 37.5835 41.6754V46.6115C37.5835 50.6698 35.2294 54.6479 29.1114 54.6479C17.8103 54.6479 7.84946 45.0163 7.84946 30.2981C7.84946 16.8491 16.8706 5.78785 26.9946 5.78785C34.9969 5.78785 41.5896 9.68561 43.0783 17.0096H44.2554V8.25091C39.3888 5.22601 33.1917 3.79632 26.9946 3.79632C12.5529 3.79131 0.000488281 15.7304 0.000488281 30.2931C0.000488281 44.8558 12.9486 56.6344 27.9343 56.6344C31.2282 56.6344 34.9178 55.6813 37.5835 53.9305V56.2381C37.5835 62.5237 36.0949 71.3576 31.3865 74.3825L31.8563 75.4159C41.194 72.1552 44.2554 60.7729 44.2554 51.3822V41.0333C44.2554 37.2158 46.1398 35.7008 50.8482 35.7008V34.5069L50.8432 34.5119Z" fill="#1F305E"/>
<path d="M57.0057 12.9463C59.2016 12.9463 60.9277 11.1956 60.9277 9.12879C60.9277 7.06202 59.2016 5.38653 57.0057 5.38653C54.8097 5.38653 53.1628 7.057 53.1628 9.12879C53.1628 11.2006 54.8889 12.9463 57.0057 12.9463Z" fill="#1F305E"/>
<path d="M158.825 65.9499L157.193 67.219C156.292 66.0301 155.214 65.1272 153.953 64.5152C152.692 63.9032 151.307 63.5972 149.799 63.5972C148.147 63.5972 146.618 63.9985 145.214 64.8011C143.809 65.6038 142.716 66.6823 141.945 68.0367C141.173 69.3912 140.782 70.9161 140.782 72.6117C140.782 75.1701 141.648 77.3021 143.379 79.0177C145.11 80.7283 147.291 81.5861 149.927 81.5861C152.825 81.5861 155.249 80.4373 157.197 78.1348L158.83 79.3889C157.796 80.7182 156.51 81.7516 154.967 82.479C153.424 83.2064 151.703 83.5726 149.799 83.5726C146.178 83.5726 143.325 82.3486 141.232 79.9056C139.482 77.8438 138.601 75.3507 138.601 72.4311C138.601 69.3611 139.665 66.7776 141.786 64.6757C143.908 62.5788 146.569 61.5304 149.769 61.5304C151.698 61.5304 153.444 61.9167 155.002 62.6942C156.559 63.4667 157.831 64.5553 158.825 65.9549V65.9499Z" fill="#1F305E"/>
<path d="M177.896 67.515V83.0358H175.957V80.3671C175.131 81.3854 174.206 82.1479 173.177 82.6646C172.149 83.1763 171.026 83.4371 169.809 83.4371C167.643 83.4371 165.793 82.6395 164.26 81.0493C162.727 79.4591 161.96 77.5178 161.96 75.2353C161.96 72.9528 162.732 71.0917 164.28 69.5015C165.828 67.9113 167.688 67.1187 169.864 67.1187C171.12 67.1187 172.257 67.3896 173.276 67.9314C174.295 68.4731 175.185 69.2858 175.957 70.3694V67.515H177.896ZM170.027 69.045C168.934 69.045 167.92 69.3159 166.995 69.8627C166.065 70.4095 165.328 71.177 164.784 72.1652C164.235 73.1535 163.963 74.1969 163.963 75.3005C163.963 76.4041 164.24 77.4375 164.789 78.4358C165.343 79.434 166.085 80.2116 167.015 80.7634C167.945 81.3152 168.949 81.5961 170.012 81.5961C171.075 81.5961 172.109 81.3202 173.073 80.7684C174.038 80.2166 174.78 79.4742 175.299 78.5311C175.818 77.588 176.081 76.5295 176.081 75.3557C176.081 73.5598 175.497 72.0599 174.33 70.8559C173.162 69.652 171.728 69.045 170.022 69.045H170.027Z" fill="#1F305E"/>
<path d="M182.322 67.515H184.291V70.2941C185.077 69.2306 185.952 68.433 186.907 67.9063C187.861 67.3796 188.905 67.1137 190.028 67.1137C191.15 67.1137 192.189 67.4097 193.074 67.9966C193.96 68.5885 194.612 69.3811 195.038 70.3794C195.458 71.3776 195.671 72.9327 195.671 75.0447V83.0308H193.702V75.6266C193.702 73.8407 193.628 72.6468 193.485 72.0448C193.257 71.0165 192.817 70.2439 192.174 69.7272C191.526 69.2106 190.685 68.9497 189.642 68.9497C188.45 68.9497 187.387 69.351 186.442 70.1486C185.497 70.9462 184.879 71.9345 184.577 73.1184C184.389 73.8909 184.295 75.2955 184.295 77.3422V83.0358H182.327V67.515H182.322Z" fill="#1F305E"/>
<path d="M215.132 67.515V83.0358H213.194V80.3671C212.368 81.3854 211.443 82.1479 210.414 82.6646C209.385 83.1763 208.263 83.4371 207.046 83.4371C204.88 83.4371 203.03 82.6395 201.497 81.0493C199.964 79.4591 199.197 77.5178 199.197 75.2353C199.197 72.9528 199.969 71.0917 201.517 69.5015C203.065 67.9113 204.924 67.1187 207.101 67.1187C208.357 67.1187 209.494 67.3896 210.513 67.9314C211.532 68.4731 212.422 69.2858 213.194 70.3694V67.515H215.132ZM207.264 69.045C206.171 69.045 205.157 69.3159 204.227 69.8627C203.297 70.4095 202.56 71.177 202.016 72.1652C201.467 73.1535 201.195 74.1969 201.195 75.3005C201.195 76.4041 201.472 77.4375 202.021 78.4358C202.575 79.434 203.317 80.2116 204.247 80.7634C205.177 81.3152 206.181 81.5961 207.244 81.5961C208.307 81.5961 209.341 81.3202 210.305 80.7684C211.27 80.2166 212.012 79.4742 212.531 78.5311C213.05 77.588 213.312 76.5295 213.312 75.3557C213.312 73.5598 212.729 72.0599 211.562 70.8559C210.394 69.652 208.96 69.045 207.254 69.045H207.264Z" fill="#1F305E"/>
<path d="M234.836 61.5254V83.0358H232.898V80.3671C232.072 81.3854 231.147 82.1479 230.118 82.6646C229.089 83.1763 227.967 83.4371 226.75 83.4371C224.584 83.4371 222.734 82.6395 221.201 81.0493C219.668 79.4591 218.901 77.5178 218.901 75.2353C218.901 72.9528 219.673 71.0917 221.221 69.5015C222.769 67.9113 224.628 67.1187 226.805 67.1187C228.061 67.1187 229.198 67.3896 230.217 67.9314C231.236 68.4731 232.126 69.2858 232.898 70.3694V61.5254H234.836ZM226.968 69.045C225.875 69.045 224.861 69.3159 223.936 69.8627C223.006 70.4095 222.269 71.177 221.725 72.1652C221.176 73.1535 220.904 74.1969 220.904 75.3005C220.904 76.4041 221.181 77.4375 221.735 78.4358C222.289 79.434 223.031 80.2116 223.961 80.7634C224.891 81.3202 225.895 81.5961 226.958 81.5961C228.021 81.5961 229.055 81.3202 230.019 80.7684C230.984 80.2166 231.726 79.4742 232.245 78.5311C232.764 77.588 233.026 76.5295 233.026 75.3557C233.026 73.5598 232.443 72.0599 231.276 70.8559C230.108 69.652 228.674 69.045 226.968 69.045Z" fill="#1F305E"/>
<path d="M254.541 67.515V83.0358H252.602V80.3671C251.776 81.3854 250.851 82.1479 249.822 82.6646C248.794 83.1763 247.671 83.4371 246.454 83.4371C244.288 83.4371 242.438 82.6395 240.905 81.0493C239.372 79.4591 238.605 77.5178 238.605 75.2353C238.605 72.9528 239.377 71.0917 240.925 69.5015C242.473 67.9113 244.332 67.1187 246.509 67.1187C247.765 67.1187 248.902 67.3896 249.921 67.9314C250.94 68.4731 251.83 69.2858 252.602 70.3694V67.515H254.541ZM246.672 69.045C245.574 69.045 244.565 69.3159 243.635 69.8627C242.705 70.4095 241.968 71.177 241.424 72.1652C240.875 73.1535 240.603 74.1969 240.603 75.3005C240.603 76.4041 240.88 77.4375 241.434 78.4358C241.988 79.434 242.73 80.2116 243.66 80.7634C244.59 81.3152 245.589 81.5961 246.657 81.5961C247.725 81.5961 248.754 81.3202 249.718 80.7684C250.683 80.2166 251.425 79.4742 251.944 78.5311C252.463 77.588 252.725 76.5295 252.725 75.3557C252.725 73.5598 252.142 72.0599 250.975 70.8559C249.807 69.652 248.373 69.045 246.667 69.045H246.672Z" fill="#1F305E"/>
</svg>

<svg width="255" height="84" fill="none" xmlns="http://www.w3.org/2000/svg"><path d="m110.811 51.568-.48-.833s-.01.01-.02.015c-1.404 1.029-2.814 1.736-3.986 1.736-3.645 0-6.098-1.6-6.578-6.14a15.843 15.843 0 0 1-.094-1.741v-18.32c.01-.477.01-1.234.01-1.6h7.419v-2.107h-7.419v-5.689s.025-.662-.07-1.72c-.276-3.206-1.201-6.286-2.957-8.985-1.266-1.951-3.1-3.667-5.218-4.62C90.113.977 88.006.536 85.864.536c-1.8 0-4.253.436-5.569 1.028-2.116.953-3.951 2.674-5.217 4.62-1.756 2.699-2.681 5.78-2.958 8.985-.094 1.058-.07 1.72-.07 1.72v5.689h-4.93v2.107h4.93c0 .366 0 1.123.01 1.6v22.699c-.153 3.718-1.355 5.247-5.766 5.323-1.123-.02-2.038-.136-2.79-.356-1.27-.372-2.052-1.049-2.492-2.092a2.983 2.983 0 0 1-.104-.296c-.242-.708-.361-1.56-.38-2.584V20.647h-1.02c-2.824 1.274-8.24 2.307-11.143 2.307v1.194c2.904 0 6.197.16 6.197 4.139v20.692c0 3.818-1.414 5.333-6.122 5.333v1.194c3.214 0 5.885-.16 9.1-.16 2.977 0 5.49.135 8.398.155h.702c2.592-.02 4.872-.13 7.448-.156h.95c3.215 0 5.886.16 9.1.16v-1.193h-.217c-4.753-.05-5.9-1.736-5.9-5.965V24.69h7.7v-2.107h-7.627v-8.689c0-4.665 2.167-7.354 2.785-8.126 1.296-1.62 3.007-2.875 4.97-2.875 1.964 0 3.675 1.254 4.971 2.875.618.772 2.785 3.536 2.785 8.126v8.689h-5.273v2.107h5.436v21.59c0 3.647 1.028 7.38 3.847 9.08.995.602 2.211.948 3.685.948 1.331 0 2.686-.26 4.046-.797a13.95 13.95 0 0 0 2.858-1.555 18.951 18.951 0 0 0 2.493-2.092c.06-.06.119-.116.178-.17l-.069-.121.005-.005ZM190.908 48.994V35.861c0-10.268-3.531-15.2-10.985-15.2-4.762 0-9.916 3-12.438 8.518v-8.362h-1.019c-1.098.477-2.903 1.194-4.867 1.59a28.47 28.47 0 0 1-6.276.718v1.194c2.903 0 6.197.16 6.197 4.138v10.505c0 6.922-2.982 13.61-10.277 13.61-6.356 0-7.063-6.287-7.063-11.142V20.737h-1.019c-1.098.476-2.903 1.194-4.866 1.59-2.434.557-4.63.717-6.277.717v1.194c2.745 0 5.728.16 6.044 3.823v13.133c0 10.263 3.532 15.2 10.985 15.2 4.787 0 9.966-3.025 12.478-8.594v3.261c0 3.903 1.647 5.252 3.764 5.252 2.666 0 6.276-1.75 8.398-3.662l-.549-.953c-.866.401-1.726.477-2.434.477-2.037 0-3.214-1.515-3.214-4.22V36.459c.371-5.759 3.551-11.979 10.242-11.979 6.692 0 7.063 6.286 7.063 11.142v12.731c0 4.3-1.177 5.97-6.123 5.97v1.194c3.062 0 6.197-.241 9.259-.241 3.061 0 6.043.24 9.1.24v-1.193c-4.709 0-6.118-1.515-6.118-5.333l-.005.005Z" fill="#1F305E"/><path d="M225.988 47.961c0 2.704 1.178 4.219 3.215 4.219.707 0 1.568-.08 2.434-.477l.549.953c-2.117 1.912-5.728 3.662-8.398 3.662-1.964 0-3.453-1.113-3.769-4.218-2.982 2.703-7.063 4.138-10.515 4.138-8.16 0-15.455-6.923-15.455-17.111s7.374-18.54 17.498-18.54c2.824 0 5.885 1.113 8.472 3.265V9.129c0-4.3-3.215-4.455-6.197-4.455V3.48c2.903 0 8.319-1.033 11.143-2.307h1.019V47.97l.004-.01Zm-5.964-13.289c0-6.446-2.592-11.858-9.338-11.858-6.746 0-10.435 6.686-10.435 13.61 0 7.955 3.842 16.473 11.771 16.473 5.415 0 8.002-3.978 8.002-9.631v-8.594ZM242.527 56.634c-2.591 0-6.746-1.113-8.868-2.066v-7.8h1.177c.94 6.686 4.788 7.96 7.924 7.96 2.591 0 6.746-2.147 6.746-6.21 0-5.252-4.867-6.843-12.083-11.859-2.275-1.59-3.764-4.219-3.764-7.083 0-6.527 5.807-8.914 11.297-8.914 3.14 0 6.043.953 7.849 1.83v7.4h-1.178c-.237-4.058-2.433-7.244-6.746-7.244-4.55 0-5.964 3.105-5.964 5.332 0 2.228 2.037 4.3 8.472 8.278C250.841 38.405 255 41.75 255 46.6c0 7.325-5.568 10.028-12.473 10.028v.005ZM128.349.766c-7.216 0-12.241 7.64-12.241 14.914v39.555c0 7.294-2.191 16.123-6.9 19.147l.47 1.034c9.338-3.26 12.399-14.643 12.399-24.034V24.695h7.676v-2.107h-7.601v-10.84c0-5.89 2.116-8.835 5.099-8.835 4.55 0 6.592 5.81 7.923 5.81 1.414 0 2.196-1.114 2.196-2.388 0-3.738-6.276-5.569-9.026-5.569h.005ZM50.843 34.512c-3.373 0-6.513.16-9.886.16-3.373 0-6.593-.16-9.966-.16v1.194c4.946 0 6.593 1.67 6.593 5.97v4.935c0 4.059-2.355 8.037-8.473 8.037-11.3 0-21.262-9.632-21.262-24.35 0-13.449 9.022-24.51 19.146-24.51 8.002 0 14.595 3.898 16.083 11.222h1.177V8.25c-4.866-3.024-11.063-4.454-17.26-4.454C12.553 3.791 0 15.73 0 30.293S12.95 56.634 27.934 56.634c3.294 0 6.984-.953 9.65-2.703v2.307c0 6.286-1.49 15.12-6.198 18.144l.47 1.034c9.338-3.26 12.4-14.643 12.4-24.034V41.033c0-3.817 1.884-5.332 6.592-5.332v-1.194l-.005.005ZM57.006 12.946c2.196 0 3.922-1.75 3.922-3.817s-1.726-3.742-3.922-3.742-3.843 1.67-3.843 3.742 1.726 3.817 3.843 3.817ZM158.825 65.95l-1.632 1.269c-.901-1.189-1.979-2.092-3.24-2.704-1.261-.612-2.646-.918-4.154-.918a9.082 9.082 0 0 0-4.585 1.204c-1.405.803-2.498 1.881-3.269 3.236-.772 1.354-1.163 2.88-1.163 4.575 0 2.558.866 4.69 2.597 6.406 1.731 1.71 3.912 2.568 6.548 2.568 2.898 0 5.322-1.149 7.27-3.451l1.633 1.254a10.5 10.5 0 0 1-3.863 3.09c-1.543.727-3.264 1.094-5.168 1.094-3.621 0-6.474-1.224-8.567-3.667-1.75-2.062-2.631-4.555-2.631-7.475 0-3.07 1.064-5.653 3.185-7.755 2.122-2.097 4.783-3.146 7.983-3.146 1.929 0 3.675.387 5.233 1.164a10.147 10.147 0 0 1 3.823 3.26v-.004ZM177.896 67.515v15.52h-1.939v-2.668c-.826 1.018-1.751 1.78-2.78 2.298a7.457 7.457 0 0 1-3.368.772c-2.166 0-4.016-.797-5.549-2.388-1.533-1.59-2.3-3.531-2.3-5.814 0-2.282.772-4.143 2.32-5.734 1.548-1.59 3.408-2.382 5.584-2.382 1.256 0 2.393.27 3.412.812 1.019.542 1.909 1.355 2.681 2.438v-2.854h1.939Zm-7.869 1.53c-1.093 0-2.107.27-3.032.818-.93.546-1.667 1.314-2.211 2.302a6.354 6.354 0 0 0-.821 3.135c0 1.104.277 2.138.826 3.136.554.998 1.296 1.776 2.226 2.327.93.552 1.934.833 2.997.833a6.105 6.105 0 0 0 3.061-.828c.965-.551 1.707-1.294 2.226-2.237.519-.943.782-2.002.782-3.175 0-1.796-.584-3.296-1.751-4.5-1.168-1.204-2.602-1.811-4.308-1.811h.005ZM182.322 67.515h1.969v2.78c.786-1.064 1.661-1.862 2.616-2.389a6.363 6.363 0 0 1 3.121-.792c1.122 0 2.161.296 3.046.883a5.296 5.296 0 0 1 1.964 2.382c.42.999.633 2.554.633 4.666v7.986h-1.969v-7.404c0-1.786-.074-2.98-.217-3.582-.228-1.029-.668-1.801-1.311-2.318-.648-.516-1.489-.777-2.532-.777-1.192 0-2.255.401-3.2 1.199a5.607 5.607 0 0 0-1.865 2.97c-.188.772-.282 2.177-.282 4.223v5.694h-1.968V67.515h-.005ZM215.132 67.515v15.52h-1.938v-2.668c-.826 1.018-1.751 1.78-2.78 2.298a7.46 7.46 0 0 1-3.368.772c-2.166 0-4.016-.797-5.549-2.388-1.533-1.59-2.3-3.531-2.3-5.814 0-2.282.772-4.143 2.32-5.734 1.548-1.59 3.407-2.382 5.584-2.382 1.256 0 2.393.27 3.412.812 1.019.542 1.909 1.355 2.681 2.438v-2.854h1.938Zm-7.868 1.53c-1.093 0-2.107.27-3.037.818-.93.546-1.667 1.314-2.211 2.302a6.354 6.354 0 0 0-.821 3.135c0 1.104.277 2.138.826 3.136.554.998 1.296 1.776 2.226 2.327.93.552 1.934.833 2.997.833a6.105 6.105 0 0 0 3.061-.828c.965-.551 1.707-1.294 2.226-2.237.519-.943.781-2.002.781-3.175 0-1.796-.583-3.296-1.75-4.5-1.168-1.204-2.602-1.811-4.308-1.811h.01ZM234.836 61.525v21.51h-1.938v-2.668c-.826 1.018-1.751 1.78-2.78 2.298a7.46 7.46 0 0 1-3.368.772c-2.166 0-4.016-.797-5.549-2.388-1.533-1.59-2.3-3.531-2.3-5.814 0-2.282.772-4.143 2.32-5.734 1.548-1.59 3.407-2.382 5.584-2.382 1.256 0 2.393.27 3.412.812 1.019.542 1.909 1.355 2.681 2.438v-8.844h1.938Zm-7.868 7.52c-1.093 0-2.107.27-3.032.818-.93.546-1.667 1.314-2.211 2.302a6.354 6.354 0 0 0 .01 6.27c.554.999 1.296 1.777 2.226 2.328.93.557 1.934.833 2.997.833a6.105 6.105 0 0 0 3.061-.828c.965-.551 1.707-1.294 2.226-2.237.519-.943.781-2.002.781-3.175 0-1.796-.583-3.296-1.75-4.5-1.168-1.204-2.602-1.811-4.308-1.811ZM254.541 67.515v15.52h-1.939v-2.668c-.826 1.018-1.751 1.78-2.78 2.298a7.457 7.457 0 0 1-3.368.772c-2.166 0-4.016-.797-5.549-2.388-1.533-1.59-2.3-3.531-2.3-5.814 0-2.282.772-4.143 2.32-5.734 1.548-1.59 3.407-2.382 5.584-2.382 1.256 0 2.393.27 3.412.812 1.019.542 1.909 1.355 2.681 2.438v-2.854h1.939Zm-7.869 1.53c-1.098 0-2.107.27-3.037.818-.93.546-1.667 1.314-2.211 2.302a6.354 6.354 0 0 0 .01 6.27c.554.999 1.296 1.777 2.226 2.328.93.552 1.929.833 2.997.833a6.091 6.091 0 0 0 3.061-.828c.965-.551 1.707-1.294 2.226-2.237.519-.943.781-2.002.781-3.175 0-1.796-.583-3.296-1.75-4.5-1.168-1.204-2.602-1.811-4.308-1.811h.005Z" fill="#1F305E"/></svg>
